X: 491
T: Tikho Nad Richkoyu
F: http://www.youtube.com/watch?v=d_HVQR-Qv80
O: Ukraine
M: 4/4
L: 1/8
Q: 1/4=84
K: Dm
%%MIDI program 52 Choir Aahs
A2A4 G3/2A/|F2E2D4 |A2A4 G3/2A/|F2E2D4      |
G2A2B2d2   |c2B2A4-|A8         |:d2d4 c3/2d/|B2A2G4|
A2A4 G3/2A/|F2E2D4 |G2A2B2A2   |E2F2D4-     |D4z4  :|



